Papirus-GTK/24x24/apps/kanatest.svg

<svg height="24" width="24" xmlns="http://www.w3.org/2000/svg"><rect fill="#e9a84a" height="20" rx="1" transform="matrix(0 -1 -1 0 0 0)" width="20" x="-22" y="-22"/><path d="m3 2c-.554 0-1 .446-1 1v .5c0-.554.446-1 1-1h18c .554 0 1 .446 1 1v-.5c0-.554-.446-1-1-1z" fill="#fff" opacity=".2"/><path d="m3 22c-.554 0-1-.446-1-1v-.5c0 .554.446 1 1 1h18c .554 0 1-.446 1-1v .5c0 .554-.446 1-1 1z" opacity=".3"/><path d="m10.945312 3.9882812a1.0001 1.0001 0 0 0 -.912109.7578126c0 0-.2453869.9728149-.5078124 2.3671874-.0418561-.0133528-.1072436-.0224733-.1425781-.0371093.1357935.0562475-.1300609-.1122634-.2871094-.2949219-.1570485-.182659-.2714843-.3496094-.2714843-.3496094a1.0001 1.0001 0 0 0 -.8496094-.4433594 1.0001 1.0001 0 0 0 -.796875 1.5800782c0 0 .1663196.2433835.4003906.515625.234071.2722415.467748.6031977 1.0390625.8398437.1897087.07858.3860149.1412458.5859375.1953125-.0858348.6227781-.1705615 1.2593984-.2246094 1.9316404-.02674.332617-.0179031.674039-.0332031 1.011719-.20518.051458-.426635.066594-.625.130859-1.3124395.425196-2.4990533 1.141724-3.1816406 2.298829-.6092296 1.03275-.1894963 2.137632.3671875 2.927734.5566837.790102 1.3298264 1.468599 2.3964844 1.574219.79165.078389 1.5025251-.18653 2.1738282-.548829.362685.571792.816697 1.074542 1.429687 1.423829 1.473769.839765 3.28827.486938 4.806641-.22461.759186-.355773 1.451038-.82938 1.970703-1.455078.519666-.625697.872034-1.481533.699219-2.378906-.259945-1.349802-1.239058-2.350533-2.410156-2.992188-.362064-.198378-.778386-.317653-1.179688-.460937.251607-.447381.5-.904297.5-.904297a1.0001 1.0001 0 1 0 -1.783203-.90625c0 0-.301849.558245-.751953 1.3125-.271218-.03766-.529563-.11119-.804688-.130859-.531954-.03803-1.066251-.005205-1.597656.02539.01077-.181799.003048-.360088.017578-.541015.052062-.647538.132822-1.2686467.216797-1.8710941.539119.0019033 1.074965-.0206611 1.578125-.0585938 1.327953-.100113 2.414063-.2988281 2.414063-.2988281a1.0001 1.0001 0 1 0 -.363282-1.96875c0 0-.989073.182206-2.199218.2734375-.356378.026867-.731578.0362431-1.101563.0351563.235586-1.2291014.449219-2.0703123.449219-2.0703126a1.0001 1.0001 0 0 0 -.921875-1.265625 1.0001 1.0001 0 0 0 -.09961 0zm1.179688 9.7382808c-.076159.105882-.114186.191039-.193359.296876-.273259.365285-.590715.61845-.888672.955078-.052506-.398911-.106721-.794727-.123047-1.230469.398255-.02956.801206-.038919 1.205078-.021485zm2.169922.337891c.483243.138355.941606.300503 1.316406.505859.83142.455542 1.286671.998208 1.40625 1.619141.03861.200501-.009343.407028-.271484.722656-.262141.315629-.732363.663737-1.283203.921875-1.10168.516275-2.497738.564149-2.966797.296875-.31129-.177375-.574887-.479167-.800782-.865234.670492-.627534 1.297332-1.322317 1.837891-2.044922.313467-.419033.498468-.756698.761719-1.15625zm-5.3457032.027344c.035085.65941.0751772 1.319419.1992187 1.939453.038595.192918.1415508.355799.1914063.544922-.4794945.285341-.9195334.461443-1.2402344.429687-.1293435-.01281-.6620059-.316779-.9589844-.738281-.2969785-.421501-.2807169-.757358-.2792969-.759766.337125-.571485 1.0659999-1.084839 2.0761719-1.412109.0039-.00125.0078337-.002656.0117188-.003906z" fill-rule="evenodd" opacity=".4" overflow="visible" transform=""/></svg>

<?xml version="1.0" encoding="UTF-8" standalone="no"?>
<!-- Created with Inkscape (http://www.inkscape.org/) -->

<svg
   xmlns:dc="http://purl.org/dc/elements/1.1/"
   xmlns:cc="http://creativecommons.org/ns#"
   xmlns:rdf="http://www.w3.org/1999/02/22-rdf-syntax-ns#"
   xmlns:svg="http://www.w3.org/2000/svg"
   xmlns="http://www.w3.org/2000/svg"
   xmlns:sodipodi="http://sodipodi.sourceforge.net/DTD/sodipodi-0.dtd"
   xmlns:inkscape="http://www.inkscape.org/namespaces/inkscape"
   id="svg2817"
   height="24"
   width="24"
   version="1.0"
   inkscape:version="0.91 r13725"
   sodipodi:docname="kanatest.svg">
  <sodipodi:namedview
     pagecolor="#ffffff"
     bordercolor="#666666"
     borderopacity="1"
     objecttolerance="10"
     gridtolerance="10"
     guidetolerance="10"
     inkscape:pageopacity="0"
     inkscape:pageshadow="2"
     inkscape:window-width="1600"
     inkscape:window-height="849"
     id="namedview21"
     showgrid="false"
     inkscape:zoom="9.95"
     inkscape:cx="-6.3950002"
     inkscape:cy="14.1958"
     inkscape:window-x="0"
     inkscape:window-y="0"
     inkscape:window-maximized="1"
     inkscape:current-layer="svg2817" />
  <metadata
     id="metadata57">
    <rdf:RDF>
      <cc:Work
         rdf:about="">
        <dc:format>image/svg+xml</dc:format>
        <dc:type
           rdf:resource="http://purl.org/dc/dcmitype/StillImage" />
        <dc:title></dc:title>
      </cc:Work>
    </rdf:RDF>
  </metadata>
  <defs
     id="defs2819" />
  <g
     id="g4219">
    <rect
       x="-22"
       y="-22"
       width="20"
       height="20"
       ry="1"
       rx="1"
       transform="matrix(0,-1,-1,0,0,0)"
       id="rect4203"
       style="fill:#e9a84a" />
    <path
       d="M 3,2 C 2.446,2 2,2.446 2,3 l 0,0.5 c 0,-0.554 0.446,-1 1,-1 l 18,0 c 0.554,0 1,0.446 1,1 L 22,3 C 22,2.446 21.554,2 21,2 L 3,2 Z"
       id="rect4592"
       inkscape:connector-curvature="0"
       style="opacity:0.2;fill:#ffffff" />
    <path
       d="M 3,22 C 2.446,22 2,21.554 2,21 l 0,-0.5 c 0,0.554 0.446,1 1,1 l 18,0 c 0.554,0 1,-0.446 1,-1 l 0,0.5 c 0,0.554 -0.446,1 -1,1 L 3,22 Z"
       id="path4597"
       inkscape:connector-curvature="0"
       style="opacity:0.3" />
    <g
       style="opacity:0.4"
       transform="matrix(0.5,0,0,0.5,1.0000872,0)"
       id="g4163">
      <path
         style="color:#000000;font-style:normal;font-variant:normal;font-weight:normal;font-stretch:normal;font-size:medium;line-height:normal;font-family:sans-serif;text-indent:0;text-align:start;text-decoration:none;text-decoration-line:none;text-decoration-style:solid;text-decoration-color:#000000;letter-spacing:normal;word-spacing:normal;text-transform:none;direction:ltr;block-progression:tb;writing-mode:lr-tb;baseline-shift:baseline;text-anchor:start;white-space:normal;clip-rule:nonzero;display:inline;overflow:visible;visibility:visible;opacity:1;isolation:auto;mix-blend-mode:normal;color-interpolation:sRGB;color-interpolation-filters:linearRGB;solid-color:#000000;solid-opacity:1;fill:#000000;fill-opacity:1;fill-rule:evenodd;stroke:none;stroke-width:4;stroke-linecap:round;stroke-linejoin:round;stroke-miterlimit:4;stroke-dasharray:none;stroke-dashoffset:0;stroke-opacity:1;color-rendering:auto;image-rendering:auto;shape-rendering:auto;text-rendering:auto;enable-background:accumulate"
         d="M 10.945312 3.9882812 A 1.0001 1.0001 0 0 0 10.033203 4.7460938 C 10.033203 4.7460938 9.7878161 5.7189087 9.5253906 7.1132812 C 9.4835345 7.0999284 9.418147 7.0908079 9.3828125 7.0761719 C 9.518606 7.1324194 9.2527516 6.9639085 9.0957031 6.78125 C 8.9386546 6.598591 8.8242188 6.4316406 8.8242188 6.4316406 A 1.0001 1.0001 0 0 0 7.9746094 5.9882812 A 1.0001 1.0001 0 0 0 7.1777344 7.5683594 C 7.1777344 7.5683594 7.344054 7.8117429 7.578125 8.0839844 C 7.812196 8.3562259 8.045873 8.6871821 8.6171875 8.9238281 C 8.8068962 9.0024081 9.0032024 9.0650739 9.203125 9.1191406 C 9.1172902 9.7419187 9.0325635 10.378539 8.9785156 11.050781 C 8.9517756 11.383398 8.9606125 11.72482 8.9453125 12.0625 C 8.7401325 12.113958 8.5186775 12.129094 8.3203125 12.193359 C 7.007873 12.618555 5.8212592 13.335083 5.1386719 14.492188 C 4.5294423 15.524938 4.9491756 16.62982 5.5058594 17.419922 C 6.0625431 18.210024 6.8356858 18.888521 7.9023438 18.994141 C 8.6939938 19.07253 9.4048689 18.807611 10.076172 18.445312 C 10.438857 19.017104 10.892869 19.519854 11.505859 19.869141 C 12.979628 20.708906 14.794129 20.356079 16.3125 19.644531 C 17.071686 19.288758 17.763538 18.815151 18.283203 18.189453 C 18.802869 17.563756 19.155237 16.70792 18.982422 15.810547 C 18.722477 14.460745 17.743364 13.460014 16.572266 12.818359 C 16.210202 12.619981 15.79388 12.500706 15.392578 12.357422 C 15.644185 11.910041 15.892578 11.453125 15.892578 11.453125 A 1.0001 1.0001 0 1 0 14.109375 10.546875 C 14.109375 10.546875 13.807526 11.10512 13.357422 11.859375 C 13.086204 11.821715 12.827859 11.748185 12.552734 11.728516 C 12.02078 11.690486 11.486483 11.723311 10.955078 11.753906 C 10.965848 11.572107 10.958126 11.393818 10.972656 11.212891 C 11.024718 10.565353 11.105478 9.9442443 11.189453 9.3417969 C 11.728572 9.3437002 12.264418 9.3211358 12.767578 9.2832031 C 14.095531 9.1830901 15.181641 8.984375 15.181641 8.984375 A 1.0001 1.0001 0 1 0 14.818359 7.015625 C 14.818359 7.015625 13.829286 7.197831 12.619141 7.2890625 C 12.262763 7.3159295 11.887563 7.3253056 11.517578 7.3242188 C 11.753164 6.0951174 11.966797 5.2539065 11.966797 5.2539062 A 1.0001 1.0001 0 0 0 11.044922 3.9882812 A 1.0001 1.0001 0 0 0 10.945312 3.9882812 z M 12.125 13.726562 C 12.048841 13.832444 12.010814 13.917601 11.931641 14.023438 C 11.658382 14.388723 11.340926 14.641888 11.042969 14.978516 C 10.990463 14.579605 10.936248 14.183789 10.919922 13.748047 C 11.318177 13.718487 11.721128 13.709128 12.125 13.726562 z M 14.294922 14.064453 C 14.778165 14.202808 15.236528 14.364956 15.611328 14.570312 C 16.442748 15.025854 16.897999 15.56852 17.017578 16.189453 C 17.056188 16.389954 17.008235 16.596481 16.746094 16.912109 C 16.483953 17.227738 16.013731 17.575846 15.462891 17.833984 C 14.361211 18.350259 12.965153 18.398133 12.496094 18.130859 C 12.184804 17.953484 11.921207 17.651692 11.695312 17.265625 C 12.365804 16.638091 12.992644 15.943308 13.533203 15.220703 C 13.84667 14.80167 14.031671 14.464005 14.294922 14.064453 z M 8.9492188 14.091797 C 8.9843038 14.751207 9.024396 15.411216 9.1484375 16.03125 C 9.1870325 16.224168 9.2899883 16.387049 9.3398438 16.576172 C 8.8603493 16.861513 8.4203104 17.037615 8.0996094 17.005859 C 7.9702659 16.993049 7.4376035 16.68908 7.140625 16.267578 C 6.8436465 15.846077 6.8599081 15.51022 6.8613281 15.507812 C 7.1984531 14.936327 7.927328 14.422973 8.9375 14.095703 C 8.9414 14.094453 8.9453337 14.093047 8.9492188 14.091797 z "
         transform="matrix(2,0,0,2,-2.0001744,0)"
         id="path4159" />
    </g>
  </g>
</svg>
